X: 19
T: Miss Spicer
T: Mrs Spicer's fancy
R: jig
M: 6/8
L: 1/8
Z: 2010 John Chambers <jc:trillian.mit.edu>
B: Anonymous manuscript tune book (1800-1840) p.22
F: http://www.asaplive.com/archive/browse_by_collection.asp
N: The asaplive.com web site is complex, and links to its files don't usually work.
K: Bb
f/e/ |\
d2d ede | f2d b2g | f2d BAB | {AB}c2A F2f/e/ |\
d2d ede | f2d b2g | fdB {d}cBc | B3- B2 :|
|: A/B/ |\
c2c cde | {de}f2d B2B/A/ | G2G GAB | {AB}c2A F2A/B/ |\
c2c cde | f2d b2g | fdB BAc | (d3 c2) :|


%%sep 5 1 500

